uiw/copy.svg

<svg xmlns="http://www.w3.org/2000/svg" viewBox="0 0 20 20" height="1em" width="1em">
  <path fill="#555" d="M6.64402323,2.98337365 C6.50425481,2.98337365 6.39095013,3.09596098 6.39095013,3.23484449 C6.39095013,3.373728 6.50425481,3.48631533 6.64402323,3.48631533 L10.3570874,3.48631533 C10.4968558,3.48631533 10.6101605,3.373728 10.6101605,3.23484449 C10.6101605,3.09596098 10.4968558,2.98337365 10.3570874,2.98337365 L6.64402323,2.98337365 Z M10.3570874,1.64143713 C11.0914061,1.64143713 11.7104424,2.13189469 11.9005264,2.8011258 L14.0759495,2.80197723 C14.6973707,2.80612066 15.1980262,3.00706551 15.5076465,3.4396537 C15.774201,3.81207235 15.879581,4.28990427 15.8528891,4.82730538 L15.8509141,17.8393223 C15.8934599,18.3908626 15.7885863,18.8792541 15.5225312,19.2835729 C15.210806,19.7572957 14.7015186,19.9945112 14.071435,20 L3.13995999,19.9994966 C2.37999653,19.9702276 1.81737804,19.7912306 1.46521634,19.3914799 C1.13780371,19.0198228 0.994726378,18.5105985 1.00052078,17.8906025 L1.00066905,4.84136547 C0.988019654,4.24167138 1.15451277,3.73506055 1.51932498,3.36135708 C1.89478337,2.97674795 2.45080497,2.80661504 3.16611214,2.80197723 L5.10058419,2.8011258 C5.2906682,2.13189469 5.90970452,1.64143713 6.64402323,1.64143713 L10.3570874,1.64143713 Z M10.3570874,4.82825185 L6.64402323,4.82825185 C6.0984941,4.82825185 5.61659024,4.55756439 5.32692113,4.14398468 L3.17053164,4.14389938 C2.78783003,4.14638837 2.56911185,4.21331232 2.48868,4.29570448 C2.39760195,4.38900229 2.34526951,4.5482412 2.35100753,4.82730538 L2.3509787,17.8968024 C2.34795309,18.2221592 2.40322906,18.418891 2.48137187,18.5075936 C2.53476561,18.5682026 2.76735914,18.6422022 3.16611214,18.6580635 L14.0654875,18.6580895 C14.2653017,18.6563406 14.3466431,18.6184535 14.3922255,18.5491828 C14.483478,18.4105081 14.5254494,18.2150494 14.5024024,17.8906025 L14.5031763,4.79518866 C14.5173399,4.50150072 14.4758749,4.3134829 14.4071102,4.21740786 C14.3814113,4.18150236 14.2914379,4.14539034 14.071435,4.14391375 L11.6741895,4.14398468 C11.3845204,4.55756439 10.9026165,4.82825185 10.3570874,4.82825185 Z M17.199351,0 C18.193822,0 19,0.801073926 19,1.78924869 L19,15.8720168 C19,16.8601916 18.193822,17.6612655 17.199351,17.6612655 L15.2415624,17.6612655 L15.2415624,16.319329 L17.199351,16.319329 C17.4479687,16.319329 17.6495132,16.1190605 17.6495132,15.8720168 L17.6495132,1.78924869 C17.6495132,1.542205 17.4479687,1.34193652 17.199351,1.34193652 L9.64333812,1.34193652 C9.39472038,1.34193652 9.19317587,1.542205 9.19317587,1.78924869 L9.19317587,1.94562921 L7.84268912,1.94562921 L7.84268912,1.78924869 C7.84268912,0.801073926 8.64886714,0 9.64333812,0 L17.199351,0 Z M8.19610599,11.7512053 C8.56903261,11.7512053 8.87134937,12.051608 8.87134937,12.4221735 C8.87134937,12.7927391 8.56903261,13.0931418 8.19610599,13.0931418 L4.14464574,13.0931418 C3.77171912,13.0931418 3.46940236,12.7927391 3.46940236,12.4221735 C3.46940236,12.051608 3.77171912,11.7512053 4.14464574,11.7512053 L8.19610599,11.7512053 Z M12.2475662,9.06733223 C12.6204929,9.06733223 12.9228096,9.36773495 12.9228096,9.73830049 C12.9228096,10.108866 12.6204929,10.4092687 12.2475662,10.4092687 L4.14464574,10.4092687 C3.77171912,10.4092687 3.46940236,10.108866 3.46940236,9.73830049 C3.46940236,9.36773495 3.77171912,9.06733223 4.14464574,9.06733223 L12.2475662,9.06733223 Z M12.2475662,6.38345919 C12.6204929,6.38345919 12.9228096,6.68386191 12.9228096,7.05442745 C12.9228096,7.42499298 12.6204929,7.72539571 12.2475662,7.72539571 L4.14464574,7.72539571 C3.77171912,7.72539571 3.46940236,7.42499298 3.46940236,7.05442745 C3.46940236,6.68386191 3.77171912,6.38345919 4.14464574,6.38345919 L12.2475662,6.38345919 Z"/>
</svg>

<svg xmlns="http://www.w3.org/2000/svg" viewBox="0 0 20 20" height="1em" width="1em">
  <path fill="#555" d="M6.644 2.983a.252.252 0 0 0-.253.252c0 .139.113.251.253.251h3.713c.14 0 .253-.112.253-.251a.252.252 0 0 0-.253-.252H6.644Zm3.713-1.342c.734 0 1.353.49 1.544 1.16l2.175.001c.621.004 1.122.205 1.432.638.266.372.372.85.345 1.387L15.85 17.84c.042.552-.062 1.04-.328 1.445-.312.473-.821.71-1.452.716H3.14c-.76-.03-1.323-.209-1.675-.609-.327-.371-.47-.88-.464-1.5V4.84c-.013-.6.154-1.106.518-1.48.376-.384.932-.554 1.647-.559h1.935c.19-.67.809-1.16 1.543-1.16h3.713Zm0 3.187H6.644c-.546 0-1.027-.27-1.317-.684H3.17c-.383.002-.602.07-.682.152-.091.093-.144.252-.138.531v13.07c-.003.325.052.522.13.61.054.061.286.135.685.151h10.9c.2-.002.28-.04.326-.109.091-.138.133-.334.11-.658l.001-13.096c.014-.293-.027-.482-.096-.578-.026-.035-.116-.072-.336-.073h-2.397c-.29.414-.771.684-1.317.684ZM17.2 0c.994 0 1.8.801 1.8 1.79v14.082c0 .988-.806 1.79-1.8 1.79h-1.958v-1.343h1.957c.249 0 .45-.2.45-.447V1.789a.449.449 0 0 0-.45-.447H9.643c-.248 0-.45.2-.45.447v.157h-1.35v-.157C7.843.801 8.649 0 9.643 0H17.2ZM8.196 11.751c.373 0 .675.3.675.671 0 .37-.302.671-.675.671H4.145a.673.673 0 0 1-.676-.67c0-.371.303-.672.676-.672h4.051Zm4.052-2.684c.372 0 .675.3.675.671 0 .37-.303.671-.675.671H4.145a.673.673 0 0 1-.676-.67c0-.371.303-.672.676-.672h8.103Zm0-2.684c.372 0 .675.3.675.671a.673.673 0 0 1-.675.671H4.145a.673.673 0 0 1-.676-.67c0-.371.303-.672.676-.672h8.103Z"/>
</svg>
